!!!OTL: Nun danket alle Gott!
!!!ARE: Europa, Mitteleuropa, Deutschland
!!!SCT: A0646
!!!TXL: @@DE
!!!YEM: Copyright 1995, estate of Helmut Schaffrath.
**kern	**text
*M4/4	*
*met(c)	*
*k[b-]	*
*F:	*
=1	=1
2ryy	.
{2cc	1. Nun
=2	=2
4.cc	dan-
8cc	-ket
4dd	al-
4dd	-le
=3	=3
2cc	Gott
4r	.
4a	mit
=4	=4
4b-/	Her-
4a	-ʒen,
4g	Mund
4f	und
=5	=5
2e	Hän-
2f}	-den,}
=6	=6
{2r	.
2cc	Der
=7	=7
4.cc	gro-
8cc	-ße
4dd	Din-
4dd	-ge
=8	=8
2cc	thut
4r	.
4a	an
=9	=9
4b-/	uns
4a	und
4g	al-
4f	-len
=10	=10
2e	En-
2f	-den,}
=11	=11
2r}	.
{2g	Der
=12	=12
4g	uns
4g	von
4a	Mut-
4a	-ter-
=13	=13
2g	-leib
4r	.
4g	und
=14	=14
4a	Kin-
4cc	-des-
4cc	-bei-
4bn	-nen
=15	=15
2cc	an
4r}	.
{4cc	un-
=16	=16
4dd	-ʒäh-
4cc	-lig
4b-/	viel
4a	ʒu
=17	=17
2b-/	gut
2a	und
=18	=18
4g	noch
4f	jetʒ-
4f	-und
4e	ge-
=19	=19
1f;}	-than.
==	==
!!!GTL: Geistliche Volkslieder
!!!AGN: Romanze, Ballade, Lied, religioeses Lied
!! Joh. Krueger 1649
!!!ONB: ESAC (Essen Associative Code) Database: ALTDEU
!!!AMT: simple quadruple
!!!AIN: vox
!!!EED: Helmut Schaffrath
!!!EEV: 1.0
!!!URL-scan: https://rosdok.uni-rostock.de/mcrviewer/recordIdentifier/rosdok_ppn738218359/iview2/phys_0827.iview2?x=108.00678923277815&y=1381.6542715495452&scale=0.7106933083589261&rotation=0&layout=singlePageLayout&logicalDiv=log_0007
!!!ENC: Anna Maria Matuszewska
!!!EEV: 2024/25/03
*-	*-
